src/static/logos/sidekiq.svg

<?xml version="1.0" encoding="UTF-8" standalone="no"?>
<svg width="256px" height="278px" viewBox="0 0 256 278" version="1.1" xmlns="http://www.w3.org/2000/svg" xmlns:xlink="http://www.w3.org/1999/xlink" preserveAspectRatio="xMidYMid">
	<g>
		<path d="M70.8820097,128.929 C70.8820097,128.929 67.6710097,128.266 66.7280097,128.549 C65.7840097,128.833 60.3970097,127.892 58.0340097,126.189 C55.6700097,124.492 53.3100097,125.72 51.1370097,124.397 C48.9670097,123.073 45.6570097,123.261 43.2040097,123.169 C40.7480097,123.076 37.6290097,123.261 36.4950097,124.773 C35.3610097,126.282 30.9230097,130.913 29.3170097,132.798 C27.7120097,134.686 21.1930097,141.483 18.6420097,142.52 C18.6420097,142.52 19.3010097,143.563 18.9250097,144.316 C18.5460097,145.074 18.8300097,147.241 18.8300097,147.999 C18.8300097,148.758 19.0180097,149.98 18.3610097,150.739 C17.6960097,151.495 17.3200097,152.72 17.3200097,153.192 C17.3200097,153.664 16.5620097,155.364 17.3200097,157.632 C18.0750097,159.899 18.7340097,162.445 15.6190097,161.408 C12.5000097,160.371 13.1620097,157.539 10.6130097,157.441 C8.06500966,157.348 4.75800966,157.441 3.81200966,153.951 C2.86300966,150.455 1.07200966,144.507 0.693009663,143.563 C0.317009663,142.621 -1.00499034,138.277 1.45100966,134.501 C3.90700966,130.724 4.37900966,127.985 4.75800966,127.133 C5.13400966,126.285 6.93100966,120.901 8.25000966,120.142 C9.57200966,119.386 9.09800966,117.026 9.85600966,115.989 C10.6110097,114.95 10.3270097,113.25 10.7990097,112.306 C11.2700097,111.361 11.4610097,108.625 12.1210097,106.548 C12.7830097,104.472 14.9560097,101.257 16.2780097,99.56 C17.6000097,97.863 18.3580097,95.314 18.3580097,94.463 C18.3580097,93.611 17.8870097,91.821 20.0570097,90.31 C22.2270097,88.798 26.1000097,83.889 26.4790097,83.133 C26.4790097,82.945 26.4790097,79.452 26.2880097,78.224 C26.1000097,76.996 25.8170097,75.864 27.0430097,75.392 C28.2760097,74.917 29.9740097,73.878 29.9740097,73.878 C29.9740097,73.878 28.7950097,72.369 26.2430097,71.093 C23.6920097,69.82 16.0400097,61.18 15.3320097,56.082 C14.6220097,50.983 14.3390097,42.91 21.2830097,40.077 C28.2280097,37.242 35.8770097,35.686 37.0140097,35.545 C38.1480097,35.405 42.1150097,34.553 43.6760097,35.686 C43.6760097,35.686 41.9740097,35.405 41.2670097,35.686 C40.5570097,35.969 44.6640097,35.829 45.6570097,36.961 C45.6570097,36.961 43.6760097,36.397 42.5410097,36.537 C41.4100097,36.677 44.5260097,37.953 45.0930097,38.945 C45.6570097,39.937 47.7850097,40.645 47.5020097,42.204 C47.2210097,43.761 47.0780097,46.169 47.3590097,46.877 C47.6450097,47.585 48.3520097,48.861 48.4950097,50.842 C48.6380097,52.826 49.2060097,55.518 49.7700097,56.791 C50.3370097,58.066 51.7540097,62.031 51.1870097,64.863 C51.1870097,64.863 51.7540097,66.28 54.5870097,63.023 C57.4220097,59.763 60.2570097,59.199 61.6720097,59.199 C63.0890097,59.199 65.2170097,57.78 66.6320097,58.347 C68.0520097,58.915 69.6130097,58.207 71.3120097,58.631 C73.0100097,59.055 80.0950097,58.631 81.6560097,58.063 C83.2110097,57.496 88.5980097,56.788 89.7290097,56.788 C90.8630097,56.788 88.3140097,54.947 90.4390097,53.531 C92.5670097,52.115 88.1710097,51.407 91.4330097,47.302 C94.6890097,43.194 91.5700097,42.061 91.0060097,41.213 C90.4420097,40.361 90.2990097,37.669 90.2990097,36.113 C90.2990097,34.553 89.8750097,30.588 89.8750097,30.588 L90.4420097,29.88 C90.4420097,29.88 89.9840097,29.127 89.5350097,28.86 C89.0890097,28.593 88.6430097,26.986 88.2890097,25.916 C87.9270097,24.845 84.0000097,19.043 82.8400097,18.152 C81.6780097,17.255 81.5010097,15.921 81.6780097,14.67 C81.8580097,13.417 82.7480097,12.349 82.5710097,11.009 C82.3910097,9.672 82.4810097,7.887 82.3910097,7.264 C82.3040097,6.637 82.5710097,2.891 83.3760097,2.534 C83.3760097,2.534 84.0000097,2.265 84.2690097,3.155 C84.2690097,3.155 83.8200097,0.034 84.8020097,0.034 C84.8020097,0.034 85.9650097,-0.323 86.4110097,1.284 C86.8540097,2.891 87.3040097,3.782 87.3930097,4.229 C87.4830097,4.676 87.8400097,5.387 87.8400097,5.387 C87.8400097,5.387 88.8190097,4.945 89.6250097,5.299 C90.4280097,5.656 90.9670097,6.013 90.9670097,6.46 C90.9670097,6.907 90.9670097,6.103 91.9490097,6.103 C92.9290097,6.103 93.8240097,5.833 94.0940097,6.817 C94.3580097,7.797 94.5400097,8.514 94.6270097,9.495 C94.7200097,10.475 94.8970097,11.279 95.2530097,11.993 C95.6130097,12.706 96.1430097,13.954 96.1430097,15.651 C96.1430097,17.348 96.7720097,20.47 97.0390097,21.9 C97.3050097,23.328 100.34301,28.86 100.34301,28.86 C100.34301,28.86 104.98501,29.754 107.12701,29.307 C109.27201,28.86 113.01901,29.664 112.57601,31.628 C112.13001,33.589 111.86301,39.392 111.68301,43.944 C111.50401,48.496 110.78801,57.33 110.07501,60.455 C109.35901,63.576 104.98501,71.7 103.20001,73.037 C101.41801,74.378 99.4500097,75.268 94.5400097,77.589 C89.6280097,79.91 83.9130097,82.498 83.9130097,82.498 C83.9130097,82.498 86.9500097,86.78 87.6630097,87.05 C88.3760097,87.317 88.2890097,86.426 89.1790097,86.78 C89.6220097,86.958 91.1630097,87.562 90.1840097,87.16 C90.1820097,87.197 95.5630097,88.574 95.5630097,88.574 C96.0780097,88.564 96.3980097,88.471 96.3330097,88.166 C96.0640097,86.92 97.3160097,85.314 97.8500097,84.954 C98.3860097,84.598 97.0470097,86.56 97.8500097,87.45 C98.6560097,88.346 110.19801,84.929 109.98201,85.541 C109.76801,86.153 110.60801,86.201 111.34401,85.625 C112.07401,85.052 115.13201,83.062 117.31101,83.07 C119.49601,83.081 124.43901,83.517 125.76401,83.034 C127.09001,82.553 133.11701,78.836 135.13001,77.853 C137.13801,76.865 144.07701,76.96 147.00701,74.989 C149.93601,73.015 156.38601,68.396 159.11001,66.715 C161.83201,65.035 182.02601,52.692 186.33401,52.021 C190.64201,51.35 200.96801,47.279 202.73701,46.018 C204.50701,44.76 210.07301,41.697 211.18801,40.737 C212.30501,39.776 217.88801,42.216 220.79801,46.352 C220.79801,46.352 226.47301,43.575 227.69801,43.469 C228.91901,43.362 231.18301,41.787 232.91801,40.459 C234.65701,39.128 239.89101,35.604 242.18001,34.489 C242.18001,34.489 243.33701,33.981 243.55901,33.169 C243.78101,32.358 244.70501,30.808 245.53601,31.128 C245.53601,31.128 247.35901,28.803 248.09701,29.503 C248.09701,29.503 249.69801,27.989 250.61601,28.812 C250.61601,28.812 251.52301,28.941 251.82901,29.429 C251.82901,29.429 252.98101,28.5 253.51401,29.205 C253.51401,29.205 254.34601,28.267 255.74701,29.368 C255.74701,29.368 256.68001,30.516 254.96401,32.628 C254.96401,32.628 253.88801,33.184 253.13501,34.733 C252.38801,36.283 250.29601,39.229 248.00501,40.383 C245.70701,41.537 243.05601,43.564 243.15501,47.708 C243.25601,51.856 241.48901,56.677 237.13401,55.593 C232.77801,54.509 228.95901,55.972 225.14501,58.047 C225.14501,58.047 224.81101,60.237 224.44301,60.759 C224.07201,61.279 222.36701,61.11 220.02301,62.579 C217.68001,64.044 216.25101,64.595 214.40301,65.976 C212.55201,67.358 212.15601,68.29 210.60101,69.011 C209.04501,69.739 207.29801,71.71 206.26701,72.802 C205.23101,73.891 201.42001,76.573 196.91601,78.763 C192.40801,80.956 173.88201,87.563 169.59901,91.036 C165.31101,94.509 157.42801,100.731 145.46501,106.583 C144.96801,106.824 144.50701,107.06 144.03801,107.293 C143.31401,107.953 133.02701,117.359 129.50501,119.819 C125.85401,122.368 124.39401,122.733 123.29901,128.565 C122.58001,132.409 119.64501,138.614 117.61801,143.556 C117.17101,148.366 116.91501,153.038 116.80601,155.885 C116.66501,159.566 111.95001,196.172 110.81601,200.131 C109.67801,204.096 109.39801,207.069 109.96501,210.183 C110.53201,213.291 109.11401,216.972 107.41501,220.086 C105.71001,223.2 102.87701,230.559 103.30101,234.805 C103.72501,239.05 104.15201,240.608 102.87701,241.173 C101.59901,241.737 97.4880097,241.6 96.9230097,243.015 C96.3560097,244.43 94.2300097,244.43 94.2300097,244.43 C94.2300097,244.43 93.5920097,250.745 94.7040097,251.857 C95.8190097,252.963 99.7510097,257.615 94.9680097,261.08 C90.1800097,264.551 85.1340097,267.628 83.9570097,270.051 C82.7750097,272.469 80.1520097,273.847 79.1690097,274.631 C78.1860097,275.414 76.4170097,276.529 76.2850097,276.984 C76.1560097,277.444 74.7150097,278.295 73.3360097,277.905 C73.3360097,277.905 72.1570097,278.424 70.9100097,277.048 C70.9100097,277.048 68.8820097,277.245 68.4860097,275.939 C68.4860097,275.939 66.7810097,276.066 66.5850097,274.76 C66.5850097,274.76 65.7310097,272.862 68.2890097,272.079 C70.8420097,271.29 74.9090097,265.595 75.0410097,264.68 C75.1700097,263.765 77.0740097,258.067 78.5150097,255.715 C79.9550097,253.356 81.8560097,247.204 82.1200097,241.577 C82.1200097,241.577 81.5330097,241.187 81.5330097,240.6 C81.5330097,240.008 81.5670097,237.304 81.8510097,236.268 C82.1370097,235.226 82.7020097,232.21 82.3260097,227.774 C81.9460097,223.343 82.8930097,216.077 82.3260097,211.076 C81.7580097,206.075 82.8370097,171.359 84.3470097,166.83 C85.8610097,162.301 86.4260097,161.265 86.3330097,159.471 C86.2370097,157.677 86.3330097,152.204 86.9000097,151.923 C87.4650097,151.64 87.5600097,144.752 87.3720097,143.994 C87.1810097,143.242 83.1170097,140.411 82.5530097,138.429 C82.5530097,138.429 82.6460097,140.504 82.5530097,141.259 C82.4570097,142.015 82.3650097,141.071 80.8510097,139.465 C79.3350097,137.859 76.5010097,134.464 76.3130097,132.01 C75.9750097,131.828 71.7870097,129.364 71.7870097,129.364 C71.2670097,129.387 71.0080097,129.142 70.8820097,128.929 Z" fill="#000000"></path>
		<path d="M90.2010031,87.094 C89.7720031,94.758 71.7810031,129.663 71.7810031,129.663 C71.1520031,132.752 71.2830031,135.635 71.6000031,137.349 C72.3620031,141.46 68.5500031,147.626 68.5500031,147.626 L72.7020031,149.802 C78.3090031,146.564 75.9040031,136.854 75.9040031,136.854 C75.4400031,135.117 75.3980031,133.444 75.6350031,131.873 L75.6790031,131.918 C75.6790031,131.918 96.0830031,91.633 95.0950031,88.46 C95.0920031,88.465 92.6600031,88.116 90.2010031,87.094" fill="#991B21"></path>
	</g>
</svg>

<svg width="256" height="278" xmlns="http://www.w3.org/2000/svg" preserveAspectRatio="xMidYMid"><path d="M70.882 128.929s-3.211-.663-4.154-.38c-.944.284-6.331-.657-8.694-2.36-2.364-1.697-4.724-.469-6.897-1.792-2.17-1.324-5.48-1.136-7.933-1.228-2.456-.093-5.575.092-6.709 1.604-1.134 1.509-5.572 6.14-7.178 8.025-1.605 1.888-8.124 8.685-10.675 9.722 0 0 .659 1.043.283 1.796-.379.758-.095 2.925-.095 3.683 0 .759.188 1.981-.469 2.74-.665.756-1.041 1.981-1.041 2.453 0 .472-.758 2.172 0 4.44.755 2.267 1.414 4.813-1.701 3.776-3.119-1.037-2.457-3.869-5.006-3.967-2.548-.093-5.855 0-6.801-3.49-.949-3.496-2.74-9.444-3.119-10.388-.376-.942-1.698-5.286.758-9.062 2.456-3.777 2.928-6.516 3.307-7.368.376-.848 2.173-6.232 3.492-6.991 1.322-.756.848-3.116 1.606-4.153.755-1.039.471-2.739.943-3.683.471-.945.662-3.681 1.322-5.758.662-2.076 2.835-5.291 4.157-6.988s2.08-4.246 2.08-5.097c0-.852-.471-2.642 1.699-4.153 2.17-1.512 6.043-6.421 6.422-7.177 0-.188 0-3.681-.191-4.909-.188-1.228-.471-2.36.755-2.832 1.233-.475 2.931-1.514 2.931-1.514s-1.179-1.509-3.731-2.785C23.692 69.82 16.04 61.18 15.332 56.082c-.71-5.099-.993-13.172 5.951-16.005 6.945-2.835 14.594-4.391 15.731-4.532 1.134-.14 5.101-.992 6.662.141 0 0-1.702-.281-2.409 0-.71.283 3.397.143 4.39 1.275 0 0-1.981-.564-3.116-.424-1.131.14 1.985 1.416 2.552 2.408.564.992 2.692 1.7 2.409 3.259-.281 1.557-.424 3.965-.143 4.673.286.708.993 1.984 1.136 3.965.143 1.984.711 4.676 1.275 5.949.567 1.275 1.984 5.24 1.417 8.072 0 0 .567 1.417 3.4-1.84 2.835-3.26 5.67-3.824 7.085-3.824 1.417 0 3.545-1.419 4.96-.852 1.42.568 2.981-.14 4.68.284 1.698.424 8.783 0 10.344-.568 1.555-.567 6.942-1.275 8.073-1.275 1.134 0-1.415-1.841.71-3.257 2.128-1.416-2.268-2.124.994-6.229 3.256-4.108.137-5.241-.427-6.089-.564-.852-.707-3.544-.707-5.1 0-1.56-.424-5.525-.424-5.525l.567-.708s-.458-.753-.907-1.02c-.446-.267-.892-1.874-1.246-2.944-.362-1.071-4.289-6.873-5.449-7.764-1.162-.897-1.339-2.231-1.162-3.482.18-1.253 1.07-2.321.893-3.661-.18-1.337-.09-3.122-.18-3.745-.087-.627.18-4.373.985-4.73 0 0 .624-.269.893.621 0 0-.449-3.121.533-3.121 0 0 1.163-.357 1.609 1.25.443 1.607.893 2.498.982 2.945.09.447.447 1.158.447 1.158s.979-.442 1.785-.088c.803.357 1.342.714 1.342 1.161 0 .447 0-.357.982-.357.98 0 1.875-.27 2.145.714.264.98.446 1.697.533 2.678.093.98.27 1.784.626 2.498.36.713.89 1.961.89 3.658 0 1.697.629 4.819.896 6.249.266 1.428 3.304 6.96 3.304 6.96s4.642.894 6.784.447c2.145-.447 5.892.357 5.449 2.321-.446 1.961-.713 7.764-.893 12.316-.179 4.552-.895 13.386-1.608 16.511-.716 3.121-5.09 11.245-6.875 12.582-1.782 1.341-3.75 2.231-8.66 4.552-4.912 2.321-10.627 4.909-10.627 4.909s3.037 4.282 3.75 4.552c.713.267.626-.624 1.516-.27.443.178 1.984.782 1.005.38-.002.037 5.379 1.414 5.379 1.414.515-.01.835-.103.77-.408-.269-1.246.983-2.852 1.517-3.212.536-.356-.803 1.606 0 2.496.806.896 12.348-2.521 12.132-1.909-.214.612.626.66 1.362.084.73-.573 3.788-2.563 5.967-2.555 2.185.011 7.128.447 8.453-.036 1.326-.481 7.353-4.198 9.366-5.181 2.008-.988 8.947-.893 11.877-2.864 2.929-1.974 9.379-6.593 12.103-8.274 2.722-1.68 22.916-14.023 27.224-14.694 4.308-.671 14.634-4.742 16.403-6.003 1.77-1.258 7.336-4.321 8.451-5.281 1.117-.961 6.7 1.479 9.61 5.615 0 0 5.675-2.777 6.9-2.883 1.221-.107 3.485-1.682 5.22-3.01 1.739-1.331 6.973-4.855 9.262-5.97 0 0 1.157-.508 1.379-1.32.222-.811 1.146-2.361 1.977-2.041 0 0 1.823-2.325 2.561-1.625 0 0 1.601-1.514 2.519-.691 0 0 .907.129 1.213.617 0 0 1.152-.929 1.685-.224 0 0 .832-.938 2.233.163 0 0 .933 1.148-.783 3.26 0 0-1.076.556-1.829 2.105-.747 1.55-2.839 4.496-5.13 5.65-2.298 1.154-4.949 3.181-4.85 7.325.101 4.148-1.666 8.969-6.021 7.885-4.356-1.084-8.175.379-11.989 2.454 0 0-.334 2.19-.702 2.712-.371.52-2.076.351-4.42 1.82-2.343 1.465-3.772 2.016-5.62 3.397-1.851 1.382-2.247 2.314-3.802 3.035-1.556.728-3.303 2.699-4.334 3.791-1.036 1.089-4.847 3.771-9.351 5.961-4.508 2.193-23.034 8.8-27.317 12.273-4.288 3.473-12.171 9.695-24.134 15.547-.497.241-.958.477-1.427.71-.724.66-11.011 10.066-14.533 12.526-3.651 2.549-5.111 2.914-6.206 8.746-.719 3.844-3.654 10.049-5.681 14.991a240.85 240.85 0 00-.812 12.329c-.141 3.681-4.856 40.287-5.99 44.246-1.138 3.965-1.418 6.938-.851 10.052.567 3.108-.851 6.789-2.55 9.903-1.705 3.114-4.538 10.473-4.114 14.719.424 4.245.851 5.803-.424 6.368-1.278.564-5.389.427-5.954 1.842-.567 1.415-2.693 1.415-2.693 1.415s-.638 6.315.474 7.427c1.115 1.106 5.047 5.758.264 9.223-4.788 3.471-9.834 6.548-11.011 8.971-1.182 2.418-3.805 3.796-4.788 4.58-.983.783-2.752 1.898-2.884 2.353-.129.46-1.57 1.311-2.949.921 0 0-1.179.519-2.426-.857 0 0-2.028.197-2.424-1.109 0 0-1.705.127-1.901-1.179 0 0-.854-1.898 1.704-2.681 2.553-.789 6.62-6.484 6.752-7.399.129-.915 2.033-6.613 3.474-8.965 1.44-2.359 3.341-8.511 3.605-14.138 0 0-.587-.39-.587-.977 0-.592.034-3.296.318-4.332.286-1.042.851-4.058.475-8.494-.38-4.431.567-11.697 0-16.698-.568-5.001.511-39.717 2.021-44.246 1.514-4.529 2.079-5.565 1.986-7.359-.096-1.794 0-7.267.567-7.548.565-.283.66-7.171.472-7.929-.191-.752-4.255-3.583-4.819-5.565 0 0 .093 2.075 0 2.83-.096.756-.188-.188-1.702-1.794-1.516-1.606-4.35-5.001-4.538-7.455-.338-.182-4.526-2.646-4.526-2.646-.52.023-.779-.222-.905-.435z"/><path d="M90.201 87.094c-.429 7.664-18.42 42.569-18.42 42.569-.629 3.089-.498 5.972-.181 7.686.762 4.111-3.05 10.277-3.05 10.277l4.152 2.176c5.607-3.238 3.202-12.948 3.202-12.948a12.121 12.121 0 01-.269-4.981l.044.045S96.083 91.633 95.095 88.46c-.003.005-2.435-.344-4.894-1.366" fill="#991B21"/></svg>
